app/client/src/assets/icons/blueprintjs/16px/tractor.svg

<?xml version="1.0" encoding="UTF-8"?>
<svg viewBox="0 0 16 16" version="1.1" xmlns="http://www.w3.org/2000/svg" xmlns:xlink="http://www.w3.org/1999/xlink">
    <title>Tractor</title>
    <g stroke="none" stroke-width="1" fill="none" fill-rule="evenodd">
        <path d="M3.5,9 C5.43299662,9 7,10.5670034 7,12.5 C7,14.4329966 5.43299662,16 3.5,16 C1.56700338,16 0,14.4329966 0,12.5 C0,10.5670034 1.56700338,9 3.5,9 Z M13,10 C14.6568542,10 16,11.3431458 16,13 C16,14.6568542 14.6568542,16 13,16 C11.3431458,16 10,14.6568542 10,13 C10,11.3431458 11.3431458,10 13,10 Z M3.5,11 C2.67157288,11 2,11.6715729 2,12.5 C2,13.3284271 2.67157288,14 3.5,14 C4.32842712,14 5,13.3284271 5,12.5 C5,11.6715729 4.32842712,11 3.5,11 Z M13,12 C12.4477153,12 12,12.4477153 12,13 C12,13.5522847 12.4477153,14 13,14 C13.5522847,14 14,13.5522847 14,13 C14,12.4477153 13.5522847,12 13,12 Z M5,-8.8817842e-15 C6.46010045,-8.8817842e-15 7.5274135,0.668247768 8.00074427,2 L8.81547415,5.25536398 C9.56258359,5.31185038 10.2921329,5.37679842 11.0011668,5.45031077 L11,2 L13,2 L13.00121,5.68814278 C13.6989003,5.78256272 14.370974,5.88647587 15.0140414,6 C15.6371938,6.11000845 16,6.47851563 16,7 L15.9998084,10.3535364 C15.2669314,9.52317508 14.1946446,8.99945412 13.0000334,8.99945412 C11.1366433,8.99945412 9.57087683,10.2737033 9.12661107,11.9983431 L7.99890824,11.9989082 L7.97298636,11.9974696 C7.72351457,9.74862553 5.81657528,7.99972706 3.50114964,7.99972706 C2.42345499,7.99972706 1.43425302,8.37860068 0.65947991,9.01041459 L0.00464453734,9.01114107 L0.00409441248,8.18249692 C0.00351416105,7.38635943 0.00263399256,6.42340191 0.00148854227,6.02248733 C-8.01075786e-14,5.49941934 0.376214105,4.99007601 1,4.99007601 L1,1 C1,0.44771525 1.44771525,-8.78033113e-15 2,-8.8817842e-15 L5,-8.8817842e-15 Z M6,2 L3,2 L3,4.99007601 C4.29000552,5.01426072 5.55436669,5.05896648 6.78140011,5.1245992 L6,2 Z" id="Combined-Shape" fill="#000000"></path>
    </g>
</svg>

<svg xmlns="http://www.w3.org/2000/svg" viewBox="0 0 16 16"><path fill-rule="evenodd" d="M3.5 9a3.5 3.5 0 1 1 0 7 3.5 3.5 0 0 1 0-7Zm9.5 1a3 3 0 1 1 0 6 3 3 0 0 1 0-6Zm-9.5 1a1.5 1.5 0 1 0 0 3 1.5 1.5 0 0 0 0-3Zm9.5 1a1 1 0 1 0 0 2 1 1 0 0 0 0-2ZM5 0c1.46 0 2.527.668 3 2l.815 3.255a78.9 78.9 0 0 1 2.186.195L11 2h2l.001 3.688c.698.095 1.37.198 2.013.312.623.11.986.479.986 1v3.354a4.001 4.001 0 0 0-6.873 1.645H7.999l-.026-.002A4.5 4.5 0 0 0 .659 9.01l-.654.001v-.829C.003 7.386.002 6.423 0 6.022 0 5.5.376 4.99 1 4.99V1a1 1 0 0 1 1-1h3Zm1 2H3v2.99c1.29.024 2.554.069 3.781.135L6 2Z"/></svg>
